X:1
T:James Gibb editions
T:Ben qui si mostra - Rore
T:#
%%score [ 1 2 3 4 ]
L:1/8
Q:1/4=168
M:none
K:D
V:1 treble nm="Soprano"
V:2 treble nm="Alto"
V:3 treble-8 nm="Tenor"
V:4 bass nm="Bass"
V:1
"^Ben qui si mostra il ciel""^Cipriano de Rore\n(1515-65)" z16 | z16 | F8 A6 A2 | B4 d4 c4 d4 | %4
w: ||Ben qui si|mo- stra~il ciel va-|
 B4 B4 A8 | A4 z2 B2 A2 (GFGA B2) | A2 A4 G4 F2 z4 | z4 z2 A2 (ABcA B2) d2 | c2 c2 z4 z2 A2 A4 | %9
w: go~e se- re-|no, E qui ri\- * * * *|don le ro- se|e~i lie~\- * * * * ti|fio- ri, Spi- ran-|
 A4 B6 d2 c4 | c2 B2 B2 B2 c4 d4- | d2 G4 G2 F4 F4 | E8 F8 | z4 d6 c4 B2 | A4 e4 c4 z2 B2- | %15
w: do~a- man- ti~o- do-|ri, De- stan gli~au- gel- li~a|* dol- ce can- to~a-|me- no.|Ma ria ven-|tu- r'al fin, Ma|
 B2 A4 G2 F4 B4 | ^A4 B8 G4- | G2 F2 E4 F2 D2 D4 | D3 D D2 B,4 B,2 C4 | C2 D2 D2 E2 F4 F4 | %20
w: * ria ven- tu- r'al|fin las- so,|* ne sor- ge, Ch'A- mor|ta- ci- ta- men- te Tes-|se fra fio- ri~e l'her- be~un|
 G4 F2 B4 (^A^G !courtesy!^A4) | B4 z4 E4 F2 G2 | !courtesy!=A2 E2 F2 G2 A4 A4 | ^G4 A4 B6 A2 | %24
w: pla- ci- do an\- * *|gue. On- de ve-|nen, on- de ve- nen si|dol- ce~ai pet- ti|
 !courtesy!=G4 F4 F4 D4 | D2 D4 D2 D4 C4 | c8 B4 c4 | d4 B4 c4 z2 c2 | d4 c4 B4 ^A4 | %29
w: por- ge Ch'il cor|so- a- ve- men- te,|Pien di dol-|ce de- sio mo-|ren- do lan- gue,|
 z4 ^A4 B6 F2 | G8 x8 | F8 c8 | B4 c4 d4 B4 | c4 z2 c2 d4 c4 | B4 ^A4 z8 | z4 F4 G4 F4 | %36
w: mo- ren- do|lan-|gue, Pien|di dol- ce de-|sio mo- ren- do|lan- gue,|mo- ren- do|
[Q:1/4=166] E8[Q:1/4=163] ^D4[Q:1/4=162] F4 | %37
w: lan- gue, mo-|
[Q:1/4=160] F6[Q:1/4=158] C2[Q:1/4=156] !courtesy!=D8 |[Q:1/4=155] C16 |] %39
w: ren- do lan~-|gue.|
V:2
 z4 F4 E4 C4 | D6 D2 E4 z4 | D4 G4 E2 (A3 GFE | D2) D2 G4 E2 F2 E4 | x16 | F4 z2 B,2 D2 (EDEF G2) | %6
w: Ben qui ~si|mo- stra~il ciel|va- go~e se- re\- * * *|* no, va- go~e se- re-||no, E qui ri\- * * * *|
 F4 z2 D2 D3 D E2 (F2- | FE/D/ E2) F4 z8 | z2 A,2 (CDEC D2) F2 E2 E2 | z2 F2 G3 G G2 F2 A4 | %10
w: don, qui ri- don le ro\-|* * * * se|e~i lie\- * * * * ti fio- ri,|Spi- ran- do~a- man- ti~o- do-|
 A2 ^G2 G2 G2 A4 A4 | D6 E2 C4 D2 (D2- | D2 CB, C4) D8 | z4 F4 F6 D2 | D4 G4 F4 D4- | %15
w: ri, De- stan gli~au- gel- li~a|dol- ce can- to~a- me\-|* * * * no.|Ma ria ven-|tu- r'al fin, Ma|
 D2 C4 B,2 A,4 E4 | C4 D8 B,4- | B,2 F,2 G,4 F,2 A,2 A,4 | B,3 B, B,2 G,4 F,2 G,4 | %19
w: * ria ven- tu- r'al|fin las- so,|* ne sor- ge, Ch'A- mor|ta- ci- ta- men- te Tes-|
 A,2 A,2 B,2 C2 D4 C4 | E4 F4 F8 | F4 z4 C4 D2 E2 | F2 C2 D2 E2 F4 E4 | E4 F4 G6 F2 | %24
w: se fra fio- ri~e l'her- be~un|pla- ci- do~an-|gue. On- de ve-|nen, on- de ve- nen si|dol- ce~ai pet- ti|
 E4 C4 D4 A,4 | A,2 B,4 B,2 A,4 A,4 | E8 E4 E4 | F4 E4 E4 F4- | F4 A4 G4 (F4- | %29
w: por- ge Ch'il cor|so- a- ve- men- te,|Pien di dol-|ce de- sio mo\-|* ren- do lan\-|
 F2 ED E4) F4 z2 F2 | G4 F4 E8 | ^D8 E8 | E4 E4 F4 E4 | E4 F8 A4 | G4 (F6 ED E4) | F4 C4 E4 B,4 | %36
w: * * * * gue, mo-|ren- do lan-|gue, Pien|di dol- ce de-|sio mo- ren-|do lan\- * * *|gue, mo- ren- do|
 B,8 B,4 C4 | D4 C4 B,8 | ^A,16 |] %39
w: lan- gue, mo-|ren- do lan-|gue.|
V:3
 F8 A6 A2 | B4 d4 c4 d4- | d2 B4 B2 e4 f4 | z2 B4 e2 c2 (d3 c/B/ c2) | x16 | d8 z8 | %6
w: Ben qui si|mo- stra~il ciel va\-|* go~e se- re- no,|va- go~e se- re\- * * *||no,|
 d4 c2 (BABc d2) c3 d | B2 B2 z2 d2 (cdec d2) f2 | e4 e4 z2 d2 c4 | d4 d6 d2 e4 | %10
w: E qui ri\- * * * * don le|ro- se e~i lie\- * * * * ti|fio- ri, Spi- ran-|do~a- man- ti~o- do-|
 e2 e2 e2 e2 e4 f4 | B6 B2 A4 A4 | A8 A8 | z4 B6 A4 G2 | F4 B4 A4 F4 | F6 D2 D4 G4 | F4 G4 F4 E4 | %17
w: ri, De- stan gli~au- gel- li~a|dol- ce can- to~a-|me- no.|Ma ria ven-|tu- r'al fin, Ma|ria ven- tu- r'al|fin las- so, ne|
 B,4 B4 z2 F2 F4 | G3 G G2 D4 D2 E4 | E2 F4 A2 A2 B4 ^A2 | B4 d4 c8 | B4 z4 !courtesy!=A4 F2 E2 | %22
w: sor- ge, Ch'A- mor|ta- ci- ta- men- te Tes-|se fra fio- ri~e l'her- be~un|pla- ci- do~an-|gue. On- de ve-|
 D2 A4 B2 d2 d4 c2 | B4 d4 d6 d2 | B4 ^A4 B4 F4 | F2 G4 G2 F4 E4 | A8 ^G4 A4- | %27
w: nen, on- de ve- nen si|dol- ce~ai pet- ti|por- ge Ch'il cor|so- a- ve- men- te,|Pien di dol-|
 A2 A2 ^G4 A4 z2 F2 | B4 F2 c2 d4 c4 | B8 A4 c4 | e4 B4 B8- | B4 F4 A8 | ^G4 A6 A2 !courtesy!^G4 | %33
w: * ce de- sio mo-|ren- do, mo- ren- do|lan- gue, mo-|ren- do lan\-|* gue, Pien|di dol- ce de-|
 A4 z2 F2 B4 F2 c2 | d4 c4 B8 | ^A4 A4 B6 F2 | G8 F4 !courtesy!=A4 | B4 F4 F8 | F16 |] %39
w: sio mo- ren- do, mo-|ren- do lan-|gue, mo- ren- do|lan- gue, mo-|\-ren- do lan-|gue.|
V:4
 z16 | z16 | z4 B,4 A,4 F,4 | G,6 G,2 A,4 D,4 | G,4 E,4 A,8 | D,4 z4 z8 | %6
w: ||Ben qui si|mo- stra~il ciel va-|go~e se- re-|no,|
 D,4 F,2 (G,F,G,A, B,2) A,2 F,2 | G,4 F,2 z2 A,4 G,2 F,2 | A,4 A,4 z2 D,2 A,4 | D,4 G,6 B,2 A,4 | %10
w: E qui ri\- * * * * don le|ro- se e~i lie- ti|fio- ri, Spi- ran-|do~a- man- ti~o- do-|
 A,2 E,2 E,2 E,2 A,4 D,4 | G,6 E,2 F,4 D,4 | A,,8 D,8 | z4 B,,4 F,6 G,2 | D,4 E,4 F,4 B,,4 | %15
w: ri, De- stan gli~au- gel- li~a|dol- ce can- to~a-|me- no.|Ma ria ven-|tu- r'al fin, Ma|
 F,6 G,2 D,4 E,4 | F,4 B,8 E,4- | E,2 ^D,2 E,4 B,,2 =D,2 D,4 | G,,3 G,, G,,2 G,,4 B,,2 A,,4 | %19
w: ria ven- tu- r'al|fin las- so,|* ne sor- ge, Ch'A- mor|ta- ci- ta- men- te Tes-|
 A,,2 D,2 B,,2 A,,2 D,4 F,4 | E,4 B,,4 F,8 | B,,8 z8 | A,4 F,2 E,2 D,4 A,,4 | E,4 D,4 G,6 D,2 | %24
w: se fra fio- ri~e l'her- be~un|pla- ci- do~an-|gue.|On- de ve- nen si|dol- ce~ai pet- ti|
 E,4 F,4 B,,4 D,4 | D,2 G,,4 G,,2 D,4 A,,4 | A,,8 E,4 A,,4 | D,4 E,4 A,,4 z4 | z4 F,4 B,4 F,4 | %29
w: por- ge Ch'il cor|so- a- ve- men- te,|Pien di dol-|ce de- sio|mo- ren- do|
 G,8 F,4 F,4 | E,4 ^D,4 E,8 | B,,8 A,,8 | E,4 A,,4 !courtesy!=D,4 E,4 | A,,4 z4 z4 F,4 | %34
w: lan- gue, mo-|ren- do lan-|gue, Pien|di dol- ce de-|sio mo-|
 B,4 F,4 G,8 | F,4 F,4 E,4 ^D,4 | E,8 B,,4 F,4 | B,,4 ^A,,4 B,,8 | F,,16 |] %39
w: ren- do lan-|gue, mo- ren- do|lan- gue, mo-|ren- do lan-|gue.|

